svg/furkot/mapbox-maki/airfield.svg

<svg viewBox="0 0 512 512" xmlns="http://www.w3.org/2000/svg"><path d="m232.728 23.272h-69.82c-23.272 0-23.272-23.272 0-23.272h186.18c23.272 0 23.272 23.272 0 23.272h-69.816s27.927 20.17 27.927 66.713v46.548h204.801v68.266l-204.801 68.267-17.066 170.667 85.333 44.995v23.272h-238.933v-23.272l85.334-44.995-17.068-170.667-204.799-68.267v-68.266h204.799v-46.544c0-46.547 27.929-66.717 27.929-66.717z"/></svg>

<svg viewBox="0 0 512 512" xmlns="http://www.w3.org/2000/svg"><path d="M 232.728 23.272 L 162.908 23.272 C 139.636 23.272 139.636 0 162.908 0 L 349.088 0 C 372.36 0 372.36 23.272 349.088 23.272 L 279.272 23.272 C 279.272 23.272 307.199 43.442 307.199 89.985 L 307.199 136.533 L 512 136.533 L 512 204.799 L 307.199 273.066 L 290.133 443.733 L 375.466 488.728 L 375.466 512 L 136.533 512 L 136.533 488.728 L 221.867 443.733 L 204.799 273.066 L 0 204.799 L 0 136.533 L 204.799 136.533 L 204.799 89.989 C 204.799 43.442 232.728 23.272 232.728 23.272 Z"/></svg>
